!!!!SEGMENT: pl-cz--i-148_anonim--hi-sunt-quos-fatue-sanctorum-meritis.krn
!!!cenid: 17xx:2312
!!!COM: Anonim
!!!COM-rismID: pe30004985
!!!CDT:
!!!CNT:
!!!OTL: [Hi sunt quos fatue] / Sanctorum meritis
!!!PDT:
!!!AGN:
!!!SMS-siglum: PL-CZ
!!!SMS-shelfmark: I-148
!!!SMS-shelfwork: W
!!!SMS-variant:
!!!SMS-altvar:
!!!NIFC-rismSourceID: 300001560
!!!NIFC-rismChildID: 300001560
!!!NIFC-islandoraID: pl-cz:758
!!!URL-pdf-islandora: https://repozytorium.nifc.pl/islandora/object/pl-cz%3A758/datastream/PDF/view
!!!URL-scan: https://polish.musicsources.pl/pl/lokalizacje/galeria/rekopisy/550 @EN{Scan on Polish Music Sources Website} @PL{Skany w portalu Dziedzictwo Muzyki Polskiej w otwartym dostępie}
!!!IIIF:
!!!ONB-nifc:
!!!AIN: 1 alto 1 empty 1 organ 1 tenor 1 vox
!!!key:
**kern	**fba	**kern	**text	**text	**text	**kern	**text	**text	**text	**kern	**text	**text	**text	**kern	**text	**text	**text
*part5	*part5	*part4	*part4	*part4	*part4	*part3	*part3	*part3	*part3	*part2	*part2	*part2	*part2	*part1	*part1	*part1	*part1
*staff5	*	*staff4	*staff4	*staff4	*staff4	*staff3	*staff3	*staff3	*staff3	*staff2	*staff2	*staff2	*staff2	*staff1	*staff1	*staff1	*staff1
*Iorgan	*	*Iempty	*	*	*	*Itenor	*	*	*	*Ialto	*	*	*	*Ivox	*	*	*
*I"Organo	*	*I"Baſso	*	*	*	*I"Tenore	*	*	*	*I"Alto	*	*	*	*I"Canto	*	*	*
*I'Org.	*	*I'B.	*	*	*	*I'T.	*	*	*	*I'A.	*	*	*	*I'C.	*	*	*
*clefF4	*	*clefF4	*	*	*	*clefC4	*	*	*	*clefC3	*	*	*	*clefC1	*	*	*
*k[]	*	*k[]	*	*	*	*k[]	*	*	*	*k[]	*	*	*	*k[]	*	*	*
*a:	*	*a:	*	*	*	*a:	*	*	*	*a:	*	*	*	*a:	*	*	*
*M3/1	*	*M3/1	*	*	*	*M3/1	*	*	*	*M3/1	*	*	*	*M3/1	*	*	*
=1	=1	=1	=1	=1	=1	=1	=1	=1	=1	=1	=1	=1	=1	=1	=1	=1	=1
*2\right	*	*2\right	*	*	*	*2\right	*	*	*	*2\right	*	*	*	*2\right	*	*	*
!LO:TX:b:Bi:t=Hi Sunt quos fatue	!	!	!	!	!	!	!	!	!	!	!	!	!	!	!	!	!
!!LO:TX:a:Bi:t=Hymn N 3.
1A	.	1A	1.Hi	2. Cae-	3. Te	1A	1.Hi	2. Cae-	3. Te	1e	1.Hi	2. Cae-	3. Te	1cc	1.Hi	2. Cae-	3. Te
!	!	!	!	!	!	!	!	!	!	!	!	!	!	!LO:TX:t=P:global:problem=kreska oddechu [rozdzielacz słów / znak oddechu]	!	!	!
1A	.	1A	sunt	-dun-	Sum-	1A	sunt	-dun-	Sum-	1e	sunt	-dun-	Sum-	1cc,>	sunt	-dun-	Sum-
1D	.	1D	quos	-tur	-ma	1B	quos	-tur	-ma	1f	quos	-tur	-ma	1dd	quos	-tur	-ma
=2	=2	=2	=2	=2	=2	=2	=2	=2	=2	=2	=2	=2	=2	=2	=2	=2	=2
1.A	.	1.A	fa-	gla-	De-	1.c	fa-	gla-	De-	1.e	fa-	gla-	De-	1.cc	fa-	gla-	De-
2F\	.	2F\	-tu-	-di-	-i-	2c\	-tu-	-di-	-i-	2f\	-tu-	-di-	-i-	2a\	-tu-	-di-	-i-
1G	.	1G	-e	-js	-tas	1B	-e	-js	-tas	1d	-e	-js	-tas	1b	-e	-js	-tas
=3	=3	=3	=3	=3	=3	=3	=3	=3	=3	=3	=3	=3	=3	=3	=3	=3	=3
1E	.	1E	mun-	mo-	u-	1c	mun-	mo-	u-	1e	mun-	mo-	u-	1.g	mun-	mo-	u-
1C	.	1C	-d(us)	-re	-na-	1c	-d(us)	-re	-na-	1e	-d(us)	-re	-na-	.	.	.	.
.	.	.	.	.	.	.	.	.	.	.	.	.	.	2e/	-d(us)	-re	-na-
1F	.	1F	ab-	bi-	-que	1c	ab-	bi-	-que	1c	ab-	bi-	-que	1a	ab-	bi-	-que
=4	=4	=4	=4	=4	=4	=4	=4	=4	=4	=4	=4	=4	=4	=4	=4	=4	=4
0D	7	0D	-hor-	-den-	pos-	0c	-hor-	-den-	pos-	0f	-hor-	-den-	pos-	0a	-hor-	-den-	Pos-
.	6	.	.	.	.	.	.	.	.	.	.	.	.	.	.	.	.
1D	.	1D	-ru-	-ti-	-ci-	1B	-ru-	-ti-	-ci-	1f	-ru-	-ti-	-ci-	1e	-ru-	-ti-	-ci-
=5	=5	=5	=5	=5	=5	=5	=5	=5	=5	=5	=5	=5	=5	=5	=5	=5	=5
0.C	.	0.C	-it	-um	-mus	0.c	-it	-um	-mus	0.e	-it	-um	-mus	0.g	-it	-um	-mus
=6	=6	=6	=6	=6	=6	=6	=6	=6	=6	=6	=6	=6	=6	=6	=6	=6	=6
1G	.	1G	hunc	non	ut	1d	hunc	non	Ut	1g	hunc	non	Ut	1b	hunc	non	Ut
1A	.	1A	fruc-	mur-	Cul-	1c	fruc-	mur-	Cul-	1e	fruc-	mur-	Cul-	1cc	fruc-	mur-	Cul-
1F	.	1F	-tu	-mur	-pas	1d	-t(us)	-mur	-pas	1d	-t(us)	-mur	-pas	1a	-t(us)	-mur	-pas
=7	=7	=7	=7	=7	=7	=7	=7	=7	=7	=7	=7	=7	=7	=7	=7	=7	=7
1.E	.	1.E	Va-	re-	a-	1.B	Va-	re-	a-	1.e	Va-	re-	a-	1.g	Va-	re-	a-
2E\	.	2E\	-cu-	-so-	-bi-	2B\	-cu-	-so-	-bi-	2e\	-cu-	-so-	-bi-	2g/	-cu-	-so-	-bi-
!	!	!	!	!	!	!	!	!	!	!LO:N:vis=1	!	!	!	!	!	!	!
1E	.	1E	-um	-nat	-gas	1B	-um	-nat	-gas	2e	-um	-nat	-gas	1g	-um	-nat	-gas
.	.	.	.	.	.	.	.	.	.	2rB	.	.	.	.	.	.	.
!	!	!	!	!	!	!	!	!	!	!LO:LB:g=original	!	!	!	!	!	!	!
=8	=8	=8	=8	=8	=8	=8	=8	=8	=8	=8	=8	=8	=8	=8	=8	=8	=8
1.C	.	1.C	flo-	non	no-	1.c	flo-	non	no-	1.e	flo-	non	no-	1.e	flo-	non	no-
2C/	.	2C/	-ri-	quae-	-xi-	2c\	-ri-	quae-	-xi-	2e\	-ri-	quae-	-xi-	2f#X/	-ri-	quae-	-xi-
1BB	.	1BB	-bus	-ri-	-a	1d	-bus	-ri-	-a	1d	-bus	-ri-	-a	1g	-bus	-ri-	-a
!	!	!LO:LB:g=original	!	!	!	!LO:LB:g=original	!	!	!	!	!	!	!	!LO:LB:g=original	!	!	!
=9	=9	=9	=9	=9	=9	=9	=9	=9	=9	=9	=9	=9	=9	=9	=9	=9	=9
0D	.	0D	a-	-mo-	Sub-	0A	a-	-mo-	sub-	0d	a-	-mo-	sub-	0g	a-	-mo-	Sub-
1D	.	1D	-vi-	-ni-	-tra-	1A	-vi-	-ni-	-tra-	1d	-vi-	-ni-	-tra-	1f#X	-vi-	-ni-	-tra-
!LO:LB:g=original	!	!	!	!	!	!	!	!	!	!	!	!	!	!	!	!	!
=10	=10	=10	=10	=10	=10	=10	=10	=10	=10	=10	=10	=10	=10	=10	=10	=10	=10
0GG	.	0GG	-dum	-a	-has	0B	-d(um)	-a	-has	0d	-dum	-a	-has	0g	-dum	-a	-has
1G	.	1G	con-	sed	des	1B	con-	sed	des	1d	con-	Sed	des	1g	con-	sed	des
=11	=11	=11	=11	=11	=11	=11	=11	=11	=11	=11	=11	=11	=11	=11	=11	=11	=11
1.F	.	1F	-temp-	Cor-	pa-	1c	-temp-	Cor-	pa-	1f	-temp-	Cor-	pa-	1a	-temp-	Cor-	pa-
.	.	2F\	-se-	-de	-cem	2c\	-se-	-de	-cem	2f\	-se-	-de	-cem	2a\	-se-	-de	-cem
2E\	.	2E\	-re	im-	fa-	2c\	-re	im-	pa-	2c/	-re	im-	fa-	2g\	-re	im-	fa-
1D	.	2D/	tu-	-pa-	-mu-	2B\	tu-	-pa-	-c(em)	(>2d\	tu-	-pa-	-mu-	2f/	tu-	-pa-	-mu-
.	.	2D/	-i	-vi-	-lis	2B\	-i	-vi-	fa-	2d\)	-i	-vi-	-lis	2f/	-i	-vi-	-lis
=12	=12	=12	=12	=12	=12	=12	=12	=12	=12	=12	=12	=12	=12	=12	=12	=12	=12
1.C	.	1.C	no-	-do	ut	1.c	No-	-do	-mu-	1.e	no-	-do	ut	1.g	No-	-do	ut
2C/	.	2C/	-mi-	mens	ti-	2c\	-mi-	mens	-lis	2f\	-mi-	mens	ti-	2a\	-mi-	mens	ti-
1G	.	1G	-nis	be-	-bi	1B	-nis	be-	ut	1g	-nis	be-	-bi	1b	-nis	be-	-bi
=13	=13	=13	=13	=13	=13	=13	=13	=13	=13	=13	=13	=13	=13	=13	=13	=13	=13
1A	.	1A	aſ-	-ne	glo-	1.A	As-	-ne	ti-	1e	aſ-	-ne	glo-	1cc	aſ-	-ne	glo-
0F	7	0F	-se-	Con-	-ri-	.	.	.	.	(>1e	-se-	Con-	-ri-	0a	-se-	Con-	-ri-
.	6	.	.	.	.	2c\	.	Con-	-bi	.	.	.	.	.	.	.	.
.	.	.	.	.	.	(2B\	-se-	-sci-	glo-	1d)	-clae	-sci-	.	.	.	.	.
.	.	.	.	.	.	2A\)	.	.	-ri-	.	.	.	.	.	.	.	.
=14	=14	=14	=14	=14	=14	=14	=14	=14	=14	=14	=14	=14	=14	=14	=14	=14	=14
0.E	.	0.E	-clae	-scia	-am	0.B	-clae	-a	-am	0.e	.	-a	-am	0.g#X	-clae	-scia	-am
=15	=15	=15	=15	=15	=15	=15	=15	=15	=15	=15	=15	=15	=15	=15	=15	=15	=15
!	!	!	!	!	!	!	!	!	!	!	!	!	!	!LO:TX:b:Bi:t=1.	!	!	!
!	!	!	!	!	!	!	!	!	!	!	!	!	!	!LO:TX:a:Bi:t=1	!	!	!
0.C	.	1.C	Je-	Con-	An-	2e\	Je-	Con-	An-	2g\	Je-	Con-	An-	1%3r	.	.	.
.	.	.	.	.	.	2d\	.	.	.	2f\	.	.	.	.	.	.	.
.	.	.	.	.	.	2c\	.	.	.	2e\	.	.	.	.	.	.	.
.	.	2D/	.	.	.	2B\	.	.	.	2d\	.	.	.	.	.	.	.
.	.	2E/	.	.	.	1c	-su-	.	.	1e	.	.	.	.	.	.	.
.	.	2C/	.	.	.	.	.	.	.	.	.	.	.	.	.	.	.
!	!	!	!	!	!	!	!	!	!	!LO:LB:g=original	!	!	!	!	!	!	!
=16	=16	=16	=16	=16	=16	=16	=16	=16	=16	=16	=16	=16	=16	=16	=16	=16	=16
0.F	.	0F	.	.	-no-	1A	-Je-	-ser-	-no-	0.c	-su	.	.	2a\	Je-	Con-	An-
.	.	.	.	.	.	.	.	.	.	.	.	.	.	2g\	.	.	.
.	.	.	.	.	.	1A	-su	-vat	-r(um)	.	.	.	.	2f/	.	.	.
.	.	.	.	.	.	.	.	.	.	.	.	.	.	2e/	.	.	.
.	.	1F	-su	-ser-	-rum	1d	Rex	Con-	in	.	.	.	.	1f	.	.	.
!	!	!	!	!	!	!LO:LB:g=original	!	!	!	!	!	!	!	!	!	!	!
=17	=17	=17	=17	=17	=17	=17	=17	=17	=17	=17	=17	=17	=17	=17	=17	=17	=17
0.G	.	0.G	Rex	-vat	in	2d\	bo-	-ser-	se	1f	Rex	-ser-	-no-	0d	-su	-ser-	-no-
.	.	.	.	.	.	2c\	.	.	.	.	.	.	.	.	.	.	.
.	.	.	.	.	.	2B\	.	.	.	1d	.	-vat	-r(um)	.	.	.	.
.	.	.	.	.	.	2A\	.	.	.	.	.	.	.	.	.	.	.
.	.	.	.	.	.	1B	.	.	.	1e	.	.	.	1g	Rex	-vat	-r(um)
!	!	!LO:LB:g=original	!	!	!	!	!	!	!	!	!	!	!	!	!	!	!
=18	=18	=18	=18	=18	=18	=18	=18	=18	=18	=18	=18	=18	=18	=18	=18	=18	=18
0A	.	0A	bo-	Pa-	Se-	(>2c\	.	.	.	0e	no-	Pa-	in	0e	bo-	Pa-	in
.	.	.	.	.	.	2d\)	.	.	.	.	.	.	.	.	.	.	.
.	.	.	.	.	.	(>2e\	.	.	.	.	.	.	.	.	.	.	.
.	.	.	.	.	.	2d\)	.	.	.	.	.	.	.	.	.	.	.
1F	6	1F	-ne	-ti-	-riem	1d	-ne	-vat	riem	1d	-ne	-ti-	se-	1a	-nae	-ti-	se-
!	!	!	!	!	!	!	!	!	!	!	!	!	!	!LO:LB:g=original	!	!	!
=19	=19	=19	=19	=19	=19	=19	=19	=19	=19	=19	=19	=19	=19	=19	=19	=19	=19
0E	5 4	0E	Coe-	-en-	Ca-	1c	Coe-	Pa-	Ca-	0e	Cae-	-en-	-ri(em)	0a	Coe-	-en-	-riem
.	x 3	.	.	.	.	(>1.B	.	-tien-	.	.	.	.	.	.	.	.	.
*	*below	*	*	*	*	*	*	*	*	*	*	*	*	*	*	*	*
1E	#	1E	-li-	-ti-	.	.	.	.	.	1e	-li-	-ti-	Ca-	1g#X	-li-	-ti-	Ca-
.	.	.	.	.	.	2B\)	-li-	-ti-	.	.	.	.	.	.	.	.	.
*	*above	*	*	*	*	*	*	*	*	*	*	*	*	*	*	*	*
=20	=20	=20	=20	=20	=20	=20	=20	=20	=20	=20	=20	=20	=20	=20	=20	=20	=20
!LO:TX:a:t=P:problem=w źródle dolna fermata bez kropki	!	!	!	!	!	!	!	!	!	!	!	!	!	!	!	!	!
0.AA;;	.	0.AA	-tum-	-am-	-nant.-	0.c	-tum	-am	-nant.	0.e	-tum	-am	-nant	0.a;;	-tum	-am	-nant.
==	==	==	==	==	==	==	==	==	==	==	==	==	==	==	==	==	==
*-	*-	*-	*-	*-	*-	*-	*-	*-	*-	*-	*-	*-	*-	*-	*-	*-	*-
!!!system-decoration: [(s1,s2,s3,s4)][(s5)]
!!!RDF**kern: > = above
!!!RDF**kern: < = below
!!!RDF**kern: | = vertical stroke
!!!RDF**kern: N = linked
!!!RDF**kern: i = editorial accidental
!!!RDF**kern: l = terminal long
!!!ENC: Berenika Jozajtis
!!!END: 2021-10-26
!!!EED: Wojciech Jakubiak-Danek
!!!EEV: 2021-12-09
!!!YEC: Copyright 2022 Narodowy Instytut Fryderyka Chopina (https://polishscores.org)
!!!YEM: License CC-BY-4.0 (https://creativecommons.org/licenses/by/4.0)
